client/public/images/swipe-right.svg

<?xml version="1.0" encoding="UTF-8"?>
<svg width="18px" height="19px" viewBox="0 0 18 19" version="1.1" xmlns="http://www.w3.org/2000/svg" xmlns:xlink="http://www.w3.org/1999/xlink">
    <title>swipe-right</title>
    <g id="Page-1" stroke="none" stroke-width="1" fill="none" fill-rule="evenodd" stroke-linecap="round" stroke-linejoin="round">
        <g id="Home" transform="translate(-330.000000, -598.000000)" stroke="#303C42">
            <g id="swipe-right" transform="translate(330.333333, 599.000000)">
                <path d="M7.91709642,5.73714091 L12.0883356,6.3542835 C12.5874122,6.43015356 13.0180878,6.73669482 13.2444094,7.1771403 L15.330029,11.238091 C15.5202653,11.6095303 15.6192174,12.0190733 15.6190476,12.4342809 L15.6190476,12.4342809 C15.6192547,13.4473315 15.0325772,14.37353 14.1036534,14.8266609 L10.432338,16.6171363 C9.73460425,16.9607208 8.96428898,17.1407329 8.18268093,17.1428571 L8.18268093,17.1428571 C7.67417238,17.1436761 7.16848378,17.069176 6.68290955,16.9218981 L1.15250255,15.2380893 L0.863484107,14.67428 C0.797385738,14.5466726 0.762620907,14.4058193 0.761904762,14.2628516 L0.761904762,14.2628516 C0.759854164,14.0170299 0.858513835,13.7805778 1.03599356,13.6060358 C1.21347329,13.4314939 1.45507198,13.3333198 1.70710551,13.3333282 L4.9644215,13.3333282 C5.23515617,13.332529 5.48616118,13.1950485 5.62778673,12.9699895 C5.76941228,12.7449306 5.78146043,12.4643901 5.65962803,12.2285667 L0.886918035,2.91809448 C0.804216007,2.75461428 0.761438884,2.57467857 0.761904762,2.39238042 L0.761904762,2.2857138 C0.782222703,1.66291133 1.29511472,1.16264346 1.93363348,1.14285714 L1.93363348,1.14285714 C2.38926112,1.14369811 2.8058273,1.39396334 3.01159417,1.79047592 L5.83928814,7.23809265 L6.15174051,6.62095006 C6.43817355,6.06507948 7.02149295,5.71426885 7.65932321,5.71428377 L7.65932321,5.71428377 L7.91709642,5.73714091 Z" id="Path"></path>
                <path d="M3.04761905,0.86229051 C7.04754304,-0.939202037 11.9452997,0.160587165 14.4761905,3.42857143 L11.3748142,2.74604991 L12.4292822,1.56528768" id="Path"></path>
            </g>
        </g>
    </g>
</svg>

<svg height="19" viewBox="0 0 18 19" width="18" xmlns="http://www.w3.org/2000/svg"><g fill="none" fill-rule="evenodd" stroke="#303c42" stroke-linecap="round" stroke-linejoin="round" transform="translate(.333333 1)"><path d="m7.91709642 5.73714091 4.17123918.61714259c.4990766.07587006.9297522.38241132 1.1560738.8228568l2.0856196 4.0609507c.1902363.3714393.2891884.7809823.2890186 1.1961899.0002071 1.0130506-.5864704 1.9392491-1.5153942 2.39238l-3.6713154 1.7904754c-.69773375.3435845-1.46804902.5235966-2.24965707.5257208-.50850855.000819-1.01419715-.0736811-1.49977138-.220959l-5.530407-1.6838088-.28901844-.5638093c-.06609837-.1276074-.1008632-.2684607-.10157935-.4114284-.0020506-.2458217.09660908-.4822738.2740888-.6568158.17747973-.1745419.41907842-.272716.67111195-.2727076h3.25731599c.27073467-.0007992.52173968-.1382797.66336523-.3633387.14162555-.2250589.1536737-.5055994.0318413-.7414228l-4.77270999-9.31047222c-.08270203-.1634802-.12547916-.34341591-.12501328-.52571406v-.10666662c.02031794-.62280247.53320996-1.12307034 1.17172872-1.14285666.45562764.00084097.87219382.2511062 1.07796069.64761878l2.82769397 5.44761673.31245237-.61714259c.28643304-.55587058.86975244-.90668121 1.5075827-.90666629z"/><path d="m3.04761905.86229051c3.99992399-1.80149255 8.89768065-.70170334 11.42857145 2.56628092l-3.1013763-.68252152 1.054468-1.18076223"/></g></svg>
